X:31
T: DER JAEGER LAENGS AM WEIHER GING
N: E0013
O: Europa, Mitteleuropa, Deutschland, Rheinland ?
R: Sage, Maerchen -, Zauber - Lied
M: 2/4
L: 1/16
K: G
D2 | G2G2G2G2 | G2FED4 |
G4d2d2 | B4z2
B2 | A2A2d2A2 | G2FED4 |
G2GGG2GG | G2G2G2
B2 | AGFGAGFE | D2D2D2
c2 | B2B2A2A2 | d4
e2c2 | B2B2A2A2 | G4z2

@@@ Tune index: 3681
